icons/1_Primary/Indodax.svg

<svg width="1024" height="1024" fill="none" xmlns="http://www.w3.org/2000/svg"><g clip-path="url(#a)"><path d="M512 1024c282.77 0 512-229.23 512-512S794.77 0 512 0 0 229.23 0 512s229.23 512 512 512Z" fill="#9ABEFF"/><path d="m790 648.67-88.58 88.24L539 574.66h-54.57L322.31 736.91 234 648.61 370.44 512 234 375.39l88.31-88.31L433 397.83a24.212 24.212 0 0 1 20.852 30.23 24.211 24.211 0 0 1-47.622-5.8l-84-84.48-37.62 37.61L403.27 494h36L284.69 648.61l37.62 37.68L470 538.59h83.18l148.3 147.7 37.68-37.68L660 570.1a24.242 24.242 0 0 1-23.92-24.16v-.07a24.201 24.201 0 0 1 48.27-2.63L790 648.67ZM422.14 449.41H539l162.42-162.32 88.24 88.31-168.52 168.52 79.32 79.32a24.255 24.255 0 0 1 21.977 14.769 24.25 24.25 0 1 1-46.497 11.371L570.71 543.24l168.53-167.85h-.13l-37.68-37.61-148.3 147.7H406.44l-87-87a24.212 24.212 0 0 1-20.409-30.543 24.217 24.217 0 0 1 19.695-17.429 24.214 24.214 0 0 1 23.971 10.817 24.213 24.213 0 0 1 3.863 13.155v.45l75.58 74.48Zm279.25-48.9L572.67 529.76h-107l-119.23 120a24.216 24.216 0 0 1-16.602 20.516 24.216 24.216 0 0 1-25.489-6.848 24.215 24.215 0 0 1-4.083-26.075 24.214 24.214 0 0 1 22.174-14.313h.05L451.33 494h105.36l118.93-118.37a24.238 24.238 0 0 1 15.072-21.737 24.24 24.24 0 0 1 25.974 5.003 24.226 24.226 0 0 1 5.922 25.779A24.23 24.23 0 0 1 701.4 400.51h-.01Z" fill="#fff"/></g><defs><clipPath id="a"><path fill="#fff" d="M0 0h1024v1024H0z"/></clipPath></defs></svg>

<svg width="1024" height="1024" viewBox="0 0 1024 1024" fill="none" xmlns="http://www.w3.org/2000/svg">
<g clip-path="url(#clip0_2_2508)">
<path d="M512 1024C794.77 1024 1024 794.77 1024 512C1024 229.23 794.77 0 512 0C229.23 0 0 229.23 0 512C0 794.77 229.23 1024 512 1024Z" fill="#9ABEFF"/>
<path d="M790 648.67L701.42 736.91L539 574.66H484.43L322.31 736.91L234 648.61L370.44 512L234 375.39L322.31 287.08L433 397.83C437.638 398.324 442.034 400.146 445.661 403.079C449.287 406.012 451.989 409.929 453.442 414.361C454.895 418.793 455.038 423.55 453.852 428.06C452.666 432.571 450.202 436.643 446.757 439.787C443.312 442.931 439.032 445.013 434.432 445.782C429.832 446.552 425.108 445.976 420.827 444.125C416.547 442.274 412.892 439.225 410.302 435.347C407.713 431.468 406.299 426.923 406.23 422.26L322.23 337.78L284.61 375.39L403.27 494H439.27L284.69 648.61L322.31 686.29L470 538.59H553.18L701.48 686.29L739.16 648.61L660 570.1C653.641 570.016 647.569 567.436 643.094 562.917C638.62 558.397 636.1 552.3 636.08 545.94V545.87C636.047 539.658 638.405 533.671 642.664 529.148C646.924 524.626 652.76 521.916 658.963 521.578C665.166 521.24 671.262 523.3 675.988 527.333C680.714 531.365 683.708 537.061 684.35 543.24L790 648.67ZM422.14 449.41H539L701.42 287.09L789.66 375.4L621.14 543.92L700.46 623.24C705.16 623.307 709.74 624.738 713.642 627.36C717.544 629.982 720.599 633.682 722.437 638.009C724.274 642.336 724.814 647.103 723.992 651.732C723.169 656.36 721.019 660.65 717.803 664.078C714.587 667.507 710.443 669.927 705.877 671.043C701.311 672.16 696.518 671.926 692.083 670.368C687.647 668.811 683.76 665.998 680.894 662.272C678.028 658.546 676.307 654.067 675.94 649.38L570.71 543.24L739.24 375.39H739.11L701.43 337.78L553.13 485.48H406.44L319.44 398.48C314.808 397.919 310.437 396.032 306.853 393.046C303.268 390.059 300.623 386.1 299.236 381.646C297.848 377.191 297.777 372.431 299.031 367.937C300.286 363.443 302.812 359.407 306.306 356.315C309.8 353.223 314.113 351.207 318.726 350.508C323.339 349.81 328.055 350.459 332.308 352.378C336.56 354.297 340.168 357.404 342.697 361.325C345.225 365.246 346.567 369.815 346.56 374.48V374.93L422.14 449.41ZM701.39 400.51L572.67 529.76H465.67L346.44 649.76C345.954 654.419 344.127 658.838 341.18 662.48C338.233 666.121 334.293 668.83 329.838 670.276C325.382 671.723 320.602 671.846 316.078 670.631C311.554 669.415 307.48 666.913 304.349 663.428C301.219 659.943 299.167 655.624 298.442 650.996C297.717 646.368 298.351 641.628 300.266 637.353C302.181 633.078 305.295 629.45 309.231 626.909C313.167 624.369 317.755 623.025 322.44 623.04H322.49L451.33 494H556.69L675.62 375.63C675.756 370.936 677.253 366.383 679.928 362.524C682.604 358.665 686.344 355.666 690.692 353.893C695.041 352.121 699.811 351.65 704.422 352.538C709.033 353.426 713.287 355.634 716.666 358.896C720.045 362.157 722.404 366.329 723.455 370.906C724.506 375.483 724.205 380.267 722.588 384.675C720.97 389.084 718.107 392.928 714.345 395.739C710.584 398.55 706.086 400.208 701.4 400.51H701.39Z" fill="white"/>
</g>
<defs>
<clipPath id="clip0_2_2508">
<rect width="1024" height="1024" fill="white"/>
</clipPath>
</defs>
</svg>
